mapicons/highred.svg

<?xml version="1.0" encoding="UTF-8" standalone="no"?>
<!-- Created with Inkscape (http://www.inkscape.org/) -->

<svg
   width="210mm"
   height="297mm"
   viewBox="0 0 210 297"
   version="1.1"
   id="svg5"
   inkscape:version="1.2 (dc2aedaf03, 2022-05-15)"
   sodipodi:docname="highred.svg"
   xmlns:inkscape="http://www.inkscape.org/namespaces/inkscape"
   xmlns:sodipodi="http://sodipodi.sourceforge.net/DTD/sodipodi-0.dtd"
   xmlns="http://www.w3.org/2000/svg"
   xmlns:svg="http://www.w3.org/2000/svg">
  <sodipodi:namedview
     id="namedview7"
     pagecolor="#505050"
     bordercolor="#ffffff"
     borderopacity="1"
     inkscape:showpageshadow="0"
     inkscape:pageopacity="0"
     inkscape:pagecheckerboard="1"
     inkscape:deskcolor="#505050"
     inkscape:document-units="mm"
     showgrid="false"
     showguides="true"
     inkscape:zoom="2.1089995"
     inkscape:cx="428.40219"
     inkscape:cy="236.13092"
     inkscape:window-width="2560"
     inkscape:window-height="1017"
     inkscape:window-x="1220"
     inkscape:window-y="-8"
     inkscape:window-maximized="1"
     inkscape:current-layer="layer1">
    <sodipodi:guide
       position="49.677418,284.58065"
       orientation="1,0"
       id="guide9"
       inkscape:locked="false" />
    <sodipodi:guide
       position="21.999999,246.96775"
       orientation="0,-1"
       id="guide61"
       inkscape:locked="false" />
    <sodipodi:guide
       position="20.198163,271.90912"
       orientation="0,-1"
       id="guide401"
       inkscape:locked="false" />
    <sodipodi:guide
       position="24.965431,292.98546"
       orientation="1,0"
       id="guide403"
       inkscape:locked="false" />
  </sodipodi:namedview>
  <defs
     id="defs2" />
  <g
     inkscape:groupmode="layer"
     id="layer2"
     inkscape:label="Layer 2"
     transform="matrix(2.1335325,0,0,2.1335325,-1.7063456,-5.8307462)">
    <path
       id="rect406"
       style="fill:#ff0000;stroke-width:0.253596"
       d="m 1.633492,5.1438721 c -0.070851,0 -0.1281575,0.056789 -0.1281575,0.1276408 V 40.770121 c 0,0.07085 0.057306,0.128158 0.1281575,0.128158 h 18.353402 l 2.13682,3.700549 2.716113,4.704623 2.716114,-4.704623 2.13682,-3.700549 h 17.852141 c 0.07085,0 0.12764,-0.05731 0.12764,-0.128158 V 5.2715129 c 0,-0.070851 -0.05679,-0.1276408 -0.12764,-0.1276408 z" />
  </g>
  <g
     inkscape:label="Layer 1"
     inkscape:groupmode="layer"
     id="layer1"
     transform="matrix(2.1335325,0,0,2.1335325,-1.7063456,-5.8307462)">
    <path
       id="rect180"
       style="fill:#ffffff;stroke-width:0.0519378"
       d="m 24.943649,6.3760363 -0.587487,0.042 0.042,0.419591 -3.273218,0.335692 v 2.643735 l 3.273218,-0.461589 -0.084,4.4899927 -8.602394,4.280295 H 33.881829 L 24.985644,13.845458 Z M 16.492,18.629339 c -0.01383,0 -0.02494,0.01112 -0.02494,0.02494 V 34.21472 c 0,0.0138 0.01112,0.0249 0.02494,0.0249 h 16.399712 c 0.01384,0 0.02496,-0.0111 0.02496,-0.0249 V 18.654284 c 0,-0.01383 -0.01112,-0.02494 -0.02496,-0.02494 z m 9.315873,2.014154 h 1.544672 c 0.01383,0 0.02494,0.01121 0.02494,0.02505 v 4.4821 c 0,0.01383 -0.01112,0.02494 -0.02494,0.02494 h -1.544672 c -0.01383,0 -0.02494,-0.01112 -0.02494,-0.02494 v -4.4821 c 0,-0.01383 0.01112,-0.02505 0.02494,-0.02505 z m -6.96593,0.042 h 1.50277 c 0.01383,0 0.02495,0.01112 0.02495,0.02494 v 4.398201 c 0,0.01383 -0.01112,0.02495 -0.02495,0.02495 h -1.50277 c -0.01383,0 -0.02495,-0.01112 -0.02495,-0.02495 v -4.398201 c 0,-0.01383 0.01112,-0.02494 0.02495,-0.02494 z m 3.524914,0 h 1.418775 c 0.01383,0 0.02504,0.01112 0.02504,0.02494 v 4.398201 c 0,0.01383 -0.01121,0.02495 -0.02504,0.02495 h -1.418775 c -0.01383,0 -0.02494,-0.01112 -0.02494,-0.02495 v -4.398201 c 0,-0.01383 0.01112,-0.02494 0.02494,-0.02494 z m 6.965931,0 h 1.502674 c 0.01384,0 0.02504,0.01112 0.02504,0.02494 v 4.524098 c 0,0.01383 -0.01121,0.02494 -0.02504,0.02494 h -1.502674 c -0.01383,0 -0.02494,-0.01112 -0.02494,-0.02494 v -4.524098 c 0,-0.01383 0.01112,-0.02494 0.02494,-0.02494 z M 4.8681814,23.916714 c -0.01383,0 -0.02495,0.01112 -0.02495,0.02494 V 34.17272 c 0,0.0138 0.01112,0.0249 0.02495,0.0249 H 15.938521 c 0.01383,0 0.02495,-0.0111 0.02495,-0.0249 V 23.941657 c 0,-0.01383 -0.01112,-0.02495 -0.02495,-0.02495 z m 28.8707006,0 c -0.01384,0 -0.02496,0.01112 -0.02496,0.02494 V 34.17272 c 0,0.0138 0.01112,0.0249 0.02496,0.0249 h 11.028442 c 0.01384,0 0.02496,-0.0111 0.02496,-0.0249 V 23.941657 c 0,-0.01383 -0.01112,-0.02495 -0.02496,-0.02495 z M 9.8618594,25.637171 h 1.4187736 c 0.01383,0 0.02494,0.01112 0.02494,0.02494 v 2.719644 c 0,0.01383 -0.01112,0.02494 -0.02494,0.02494 H 9.8618594 c -0.01383,0 -0.02495,-0.01112 -0.02495,-0.02494 v -2.719644 c 0,-0.01383 0.01112,-0.02494 0.02495,-0.02494 z m 2.8534316,0 h 1.460773 c 0.01383,0 0.02494,0.01112 0.02494,0.02494 v 2.677743 c 0,0.01383 -0.01112,0.02494 -0.02494,0.02494 h -1.460773 c -0.01383,0 -0.02494,-0.01112 -0.02494,-0.02494 v -2.677743 c 0,-0.01383 0.01112,-0.02494 0.02494,-0.02494 z m 22.744146,0 h 1.460774 c 0.01384,0 0.02496,0.01112 0.02496,0.02494 v 2.719644 c 0,0.01383 -0.01112,0.02494 -0.02496,0.02494 h -1.460774 c -0.01384,0 -0.02496,-0.01112 -0.02496,-0.02494 v -2.719644 c 0,-0.01383 0.01112,-0.02494 0.02496,-0.02494 z m -28.7868006,0.042 h 1.376777 c 0.01383,0 0.02504,0.01112 0.02504,0.02494 v 2.593746 c 0,0.01383 -0.01121,0.02494 -0.02504,0.02494 h -1.376777 c -0.01383,0 -0.02494,-0.01112 -0.02494,-0.02494 v -2.593746 c 0,-0.01383 0.01112,-0.02494 0.02494,-0.02494 z m 34.6616616,0 h 1.418775 c 0.01384,0 0.02496,0.01112 0.02496,0.02494 v 2.635744 c 0,0.01383 -0.01112,0.02494 -0.02496,0.02494 h -1.418775 c -0.01384,0 -0.02496,-0.01112 -0.02496,-0.02494 v -2.635744 c 0,-0.01383 0.01112,-0.02494 0.02496,-0.02494 z m -2.895531,0.0419 h 1.418876 c 0.01384,0 0.02496,0.01112 0.02496,0.02494 v 2.593844 c 0,0.01383 -0.01112,0.02495 -0.02496,0.02495 h -1.418876 c -0.01384,0 -0.02496,-0.01112 -0.02496,-0.02495 v -2.593844 c 0,-0.01383 0.01112,-0.02494 0.02496,-0.02494 z m -16.11381,1.342867 h 4.775794 c 0.01383,0 0.02495,0.01112 0.02495,0.02494 v 5.908872 c 0,0.0138 -0.01112,0.0249 -0.02495,0.0249 h -4.775794 c -0.01383,0 -0.02504,-0.0111 -0.02504,-0.0249 v -5.908874 c 0,-0.01383 0.01121,-0.02495 0.02504,-0.02495 z m -3.483014,0.0419 h 1.460773 c 0.01383,0 0.02494,0.01121 0.02494,0.02504 v 4.775782 c 0,0.0138 -0.01112,0.025 -0.02494,0.025 h -1.460773 c -0.01383,0 -0.02495,-0.0111 -0.02495,-0.025 v -4.775789 c 0,-0.01383 0.01112,-0.02505 0.02495,-0.02505 z m 10.532843,0.042 h 1.418774 c 0.01384,0 0.02496,0.01112 0.02496,0.02494 v 4.691982 c 0,0.0138 -0.01112,0.025 -0.02496,0.025 h -1.418774 c -0.01383,0 -0.02505,-0.0111 -0.02505,-0.025 v -4.691987 c 0,-0.01383 0.01121,-0.02494 0.02505,-0.02494 z M 9.8618594,29.665677 h 1.4187736 c 0.01383,0 0.02494,0.01112 0.02494,0.02495 v 2.761643 c 0,0.0138 -0.01112,0.025 -0.02494,0.025 H 9.8618594 c -0.01383,0 -0.02495,-0.0111 -0.02495,-0.025 v -2.761643 c 0,-0.01383 0.01112,-0.02495 0.02495,-0.02495 z m -3.31512,0.0419 h 1.502674 c 0.01383,0 0.02504,0.01112 0.02504,0.02494 v 2.677743 c 0,0.0138 -0.01121,0.0249 -0.02504,0.0249 h -1.502674 c -0.01383,0 -0.02494,-0.0111 -0.02494,-0.0249 v -2.677743 c 0,-0.01383 0.01112,-0.02494 0.02494,-0.02494 z m 6.2105506,0.042 h 1.544671 c 0.01383,0 0.02494,0.01112 0.02494,0.02494 v 2.635743 c 0,0.0138 -0.01112,0.0249 -0.02494,0.0249 H 12.75729 c -0.01383,0 -0.02494,-0.0111 -0.02494,-0.0249 v -2.635743 c 0,-0.01383 0.01112,-0.02494 0.02494,-0.02494 z m 22.702147,0 h 1.502676 c 0.01384,0 0.02496,0.01112 0.02496,0.02494 v 2.635743 c 0,0.0138 -0.01112,0.0249 -0.02496,0.0249 h -1.502676 c -0.01384,0 -0.02496,-0.0111 -0.02496,-0.0249 v -2.635743 c 0,-0.01383 0.01112,-0.02494 0.02496,-0.02494 z m 5.79096,0 h 1.586576 c 0.01384,0 0.02496,0.01112 0.02496,0.02494 v 2.677733 c 0,0.0138 -0.01112,0.025 -0.02496,0.025 h -1.586576 c -0.01384,0 -0.02505,-0.0111 -0.02505,-0.025 v -2.677733 c 0,-0.01383 0.01121,-0.02494 0.02505,-0.02494 z m -2.895526,0.042 h 1.502772 c 0.01384,0 0.02496,0.01112 0.02496,0.02494 v 2.593753 c 0,0.0138 -0.01112,0.0249 -0.02496,0.0249 h -1.502772 c -0.01384,0 -0.02496,-0.0111 -0.02496,-0.0249 v -2.593753 c 0,-0.01383 0.01112,-0.02494 0.02496,-0.02494 z M 4.8281324,35.33064 c -0.01489,0 -0.02689,0.012 -0.02689,0.0269 v 1.12128 c 0,0.0149 0.012,0.0268 0.02689,0.0268 H 44.807374 c 0.01489,0 0.02688,-0.0119 0.02688,-0.0268 v -1.12128 c 0,-0.0149 -0.012,-0.0269 -0.02688,-0.0269 z m 0.042,2.30804 c -0.01489,0 -0.02689,0.012 -0.02689,0.0269 v 1.12119 c 0,0.0149 0.012,0.0269 0.02689,0.0269 H 44.849274 c 0.01489,0 0.02688,-0.012 0.02688,-0.0269 v -1.12119 c 0,-0.0149 -0.012,-0.0269 -0.02688,-0.0269 z" />
  </g>
</svg>

<?xml version="1.0" encoding="UTF-8" standalone="no"?>
<!-- Created with Inkscape (http://www.inkscape.org/) -->

<svg
   width="210mm"
   height="297mm"
   viewBox="0 0 210 297"
   version="1.1"
   id="svg5"
   inkscape:version="1.2 (dc2aedaf03, 2022-05-15)"
   sodipodi:docname="highred.svg"
   xmlns:inkscape="http://www.inkscape.org/namespaces/inkscape"
   xmlns:sodipodi="http://sodipodi.sourceforge.net/DTD/sodipodi-0.dtd"
   xmlns="http://www.w3.org/2000/svg"
   xmlns:svg="http://www.w3.org/2000/svg">
  <sodipodi:namedview
     id="namedview7"
     pagecolor="#505050"
     bordercolor="#ffffff"
     borderopacity="1"
     inkscape:showpageshadow="0"
     inkscape:pageopacity="0"
     inkscape:pagecheckerboard="1"
     inkscape:deskcolor="#505050"
     inkscape:document-units="mm"
     showgrid="false"
     showguides="true"
     inkscape:zoom="2.1089995"
     inkscape:cx="42.437183"
     inkscape:cy="108.10813"
     inkscape:window-width="1228"
     inkscape:window-height="621"
     inkscape:window-x="-8"
     inkscape:window-y="-8"
     inkscape:window-maximized="1"
     inkscape:current-layer="layer2">
    <sodipodi:guide
       position="49.677418,284.58065"
       orientation="1,0"
       id="guide9"
       inkscape:locked="false" />
    <sodipodi:guide
       position="21.999999,246.96775"
       orientation="0,-1"
       id="guide61"
       inkscape:locked="false" />
    <sodipodi:guide
       position="20.198163,271.90912"
       orientation="0,-1"
       id="guide401"
       inkscape:locked="false" />
    <sodipodi:guide
       position="24.965431,292.98546"
       orientation="1,0"
       id="guide403"
       inkscape:locked="false" />
  </sodipodi:namedview>
  <defs
     id="defs2" />
  <g
     inkscape:groupmode="layer"
     id="layer2"
     inkscape:label="Layer 2">
    <path
       id="rect406"
       style="fill:#ff0000;stroke-width:0.253596"
       d="M 1.633492 5.1438721 C 1.5626407 5.1438721 1.5053345 5.2006615 1.5053345 5.2715129 L 1.5053345 40.770121 C 1.5053345 40.840973 1.5626407 40.898279 1.633492 40.898279 L 19.986894 40.898279 L 22.123714 44.598828 L 24.839827 49.303451 L 27.555941 44.598828 L 29.692761 40.898279 L 47.544902 40.898279 C 47.615753 40.898279 47.672542 40.840973 47.672542 40.770121 L 47.672542 5.2715129 C 47.672542 5.2006615 47.615753 5.1438721 47.544902 5.1438721 L 1.633492 5.1438721 z " />
  </g>
  <g
     inkscape:label="Layer 1"
     inkscape:groupmode="layer"
     id="layer1">
    <path
       id="rect180"
       style="fill:#ffffff;stroke-width:0.0519378"
       d="m 24.943649,6.3760363 -0.587487,0.042 0.042,0.419591 -3.273218,0.335692 v 2.643735 l 3.273218,-0.461589 -0.084,4.4899927 -8.602394,4.280295 H 33.881829 L 24.985644,13.845458 Z M 16.492,18.629339 c -0.01383,0 -0.02494,0.01112 -0.02494,0.02494 V 34.21472 c 0,0.0138 0.01112,0.0249 0.02494,0.0249 h 16.399712 c 0.01384,0 0.02496,-0.0111 0.02496,-0.0249 V 18.654284 c 0,-0.01383 -0.01112,-0.02494 -0.02496,-0.02494 z m 9.315873,2.014154 h 1.544672 c 0.01383,0 0.02494,0.01121 0.02494,0.02505 v 4.4821 c 0,0.01383 -0.01112,0.02494 -0.02494,0.02494 h -1.544672 c -0.01383,0 -0.02494,-0.01112 -0.02494,-0.02494 v -4.4821 c 0,-0.01383 0.01112,-0.02505 0.02494,-0.02505 z m -6.96593,0.042 h 1.50277 c 0.01383,0 0.02495,0.01112 0.02495,0.02494 v 4.398201 c 0,0.01383 -0.01112,0.02495 -0.02495,0.02495 h -1.50277 c -0.01383,0 -0.02495,-0.01112 -0.02495,-0.02495 v -4.398201 c 0,-0.01383 0.01112,-0.02494 0.02495,-0.02494 z m 3.524914,0 h 1.418775 c 0.01383,0 0.02504,0.01112 0.02504,0.02494 v 4.398201 c 0,0.01383 -0.01121,0.02495 -0.02504,0.02495 h -1.418775 c -0.01383,0 -0.02494,-0.01112 -0.02494,-0.02495 v -4.398201 c 0,-0.01383 0.01112,-0.02494 0.02494,-0.02494 z m 6.965931,0 h 1.502674 c 0.01384,0 0.02504,0.01112 0.02504,0.02494 v 4.524098 c 0,0.01383 -0.01121,0.02494 -0.02504,0.02494 h -1.502674 c -0.01383,0 -0.02494,-0.01112 -0.02494,-0.02494 v -4.524098 c 0,-0.01383 0.01112,-0.02494 0.02494,-0.02494 z M 4.8681814,23.916714 c -0.01383,0 -0.02495,0.01112 -0.02495,0.02494 V 34.17272 c 0,0.0138 0.01112,0.0249 0.02495,0.0249 H 15.938521 c 0.01383,0 0.02495,-0.0111 0.02495,-0.0249 V 23.941657 c 0,-0.01383 -0.01112,-0.02495 -0.02495,-0.02495 z m 28.8707006,0 c -0.01384,0 -0.02496,0.01112 -0.02496,0.02494 V 34.17272 c 0,0.0138 0.01112,0.0249 0.02496,0.0249 h 11.028442 c 0.01384,0 0.02496,-0.0111 0.02496,-0.0249 V 23.941657 c 0,-0.01383 -0.01112,-0.02495 -0.02496,-0.02495 z M 9.8618594,25.637171 h 1.4187736 c 0.01383,0 0.02494,0.01112 0.02494,0.02494 v 2.719644 c 0,0.01383 -0.01112,0.02494 -0.02494,0.02494 H 9.8618594 c -0.01383,0 -0.02495,-0.01112 -0.02495,-0.02494 v -2.719644 c 0,-0.01383 0.01112,-0.02494 0.02495,-0.02494 z m 2.8534316,0 h 1.460773 c 0.01383,0 0.02494,0.01112 0.02494,0.02494 v 2.677743 c 0,0.01383 -0.01112,0.02494 -0.02494,0.02494 h -1.460773 c -0.01383,0 -0.02494,-0.01112 -0.02494,-0.02494 v -2.677743 c 0,-0.01383 0.01112,-0.02494 0.02494,-0.02494 z m 22.744146,0 h 1.460774 c 0.01384,0 0.02496,0.01112 0.02496,0.02494 v 2.719644 c 0,0.01383 -0.01112,0.02494 -0.02496,0.02494 h -1.460774 c -0.01384,0 -0.02496,-0.01112 -0.02496,-0.02494 v -2.719644 c 0,-0.01383 0.01112,-0.02494 0.02496,-0.02494 z m -28.7868006,0.042 h 1.376777 c 0.01383,0 0.02504,0.01112 0.02504,0.02494 v 2.593746 c 0,0.01383 -0.01121,0.02494 -0.02504,0.02494 h -1.376777 c -0.01383,0 -0.02494,-0.01112 -0.02494,-0.02494 v -2.593746 c 0,-0.01383 0.01112,-0.02494 0.02494,-0.02494 z m 34.6616616,0 h 1.418775 c 0.01384,0 0.02496,0.01112 0.02496,0.02494 v 2.635744 c 0,0.01383 -0.01112,0.02494 -0.02496,0.02494 h -1.418775 c -0.01384,0 -0.02496,-0.01112 -0.02496,-0.02494 v -2.635744 c 0,-0.01383 0.01112,-0.02494 0.02496,-0.02494 z m -2.895531,0.0419 h 1.418876 c 0.01384,0 0.02496,0.01112 0.02496,0.02494 v 2.593844 c 0,0.01383 -0.01112,0.02495 -0.02496,0.02495 h -1.418876 c -0.01384,0 -0.02496,-0.01112 -0.02496,-0.02495 v -2.593844 c 0,-0.01383 0.01112,-0.02494 0.02496,-0.02494 z m -16.11381,1.342867 h 4.775794 c 0.01383,0 0.02495,0.01112 0.02495,0.02494 v 5.908872 c 0,0.0138 -0.01112,0.0249 -0.02495,0.0249 h -4.775794 c -0.01383,0 -0.02504,-0.0111 -0.02504,-0.0249 v -5.908874 c 0,-0.01383 0.01121,-0.02495 0.02504,-0.02495 z m -3.483014,0.0419 h 1.460773 c 0.01383,0 0.02494,0.01121 0.02494,0.02504 v 4.775782 c 0,0.0138 -0.01112,0.025 -0.02494,0.025 h -1.460773 c -0.01383,0 -0.02495,-0.0111 -0.02495,-0.025 v -4.775789 c 0,-0.01383 0.01112,-0.02505 0.02495,-0.02505 z m 10.532843,0.042 h 1.418774 c 0.01384,0 0.02496,0.01112 0.02496,0.02494 v 4.691982 c 0,0.0138 -0.01112,0.025 -0.02496,0.025 h -1.418774 c -0.01383,0 -0.02505,-0.0111 -0.02505,-0.025 v -4.691987 c 0,-0.01383 0.01121,-0.02494 0.02505,-0.02494 z M 9.8618594,29.665677 h 1.4187736 c 0.01383,0 0.02494,0.01112 0.02494,0.02495 v 2.761643 c 0,0.0138 -0.01112,0.025 -0.02494,0.025 H 9.8618594 c -0.01383,0 -0.02495,-0.0111 -0.02495,-0.025 v -2.761643 c 0,-0.01383 0.01112,-0.02495 0.02495,-0.02495 z m -3.31512,0.0419 h 1.502674 c 0.01383,0 0.02504,0.01112 0.02504,0.02494 v 2.677743 c 0,0.0138 -0.01121,0.0249 -0.02504,0.0249 h -1.502674 c -0.01383,0 -0.02494,-0.0111 -0.02494,-0.0249 v -2.677743 c 0,-0.01383 0.01112,-0.02494 0.02494,-0.02494 z m 6.2105506,0.042 h 1.544671 c 0.01383,0 0.02494,0.01112 0.02494,0.02494 v 2.635743 c 0,0.0138 -0.01112,0.0249 -0.02494,0.0249 H 12.75729 c -0.01383,0 -0.02494,-0.0111 -0.02494,-0.0249 v -2.635743 c 0,-0.01383 0.01112,-0.02494 0.02494,-0.02494 z m 22.702147,0 h 1.502676 c 0.01384,0 0.02496,0.01112 0.02496,0.02494 v 2.635743 c 0,0.0138 -0.01112,0.0249 -0.02496,0.0249 h -1.502676 c -0.01384,0 -0.02496,-0.0111 -0.02496,-0.0249 v -2.635743 c 0,-0.01383 0.01112,-0.02494 0.02496,-0.02494 z m 5.79096,0 h 1.586576 c 0.01384,0 0.02496,0.01112 0.02496,0.02494 v 2.677733 c 0,0.0138 -0.01112,0.025 -0.02496,0.025 h -1.586576 c -0.01384,0 -0.02505,-0.0111 -0.02505,-0.025 v -2.677733 c 0,-0.01383 0.01121,-0.02494 0.02505,-0.02494 z m -2.895526,0.042 h 1.502772 c 0.01384,0 0.02496,0.01112 0.02496,0.02494 v 2.593753 c 0,0.0138 -0.01112,0.0249 -0.02496,0.0249 h -1.502772 c -0.01384,0 -0.02496,-0.0111 -0.02496,-0.0249 v -2.593753 c 0,-0.01383 0.01112,-0.02494 0.02496,-0.02494 z M 4.8281324,35.33064 c -0.01489,0 -0.02689,0.012 -0.02689,0.0269 v 1.12128 c 0,0.0149 0.012,0.0268 0.02689,0.0268 H 44.807374 c 0.01489,0 0.02688,-0.0119 0.02688,-0.0268 v -1.12128 c 0,-0.0149 -0.012,-0.0269 -0.02688,-0.0269 z m 0.042,2.30804 c -0.01489,0 -0.02689,0.012 -0.02689,0.0269 v 1.12119 c 0,0.0149 0.012,0.0269 0.02689,0.0269 H 44.849274 c 0.01489,0 0.02688,-0.012 0.02688,-0.0269 v -1.12119 c 0,-0.0149 -0.012,-0.0269 -0.02688,-0.0269 z" />
  </g>
</svg>
